Dominus_Dark_Funeral/22/apps/korganizer.svg

<svg xmlns="http://www.w3.org/2000/svg" width="24" height="24"><path d="M5.583 2.882a.69.69 0 0 0-.476.21L3.602 4.59l-.997-.993a.7.7 0 0 0-.988-.02l-.031.032a.69.69 0 0 0 .016.978l1.48 1.493.025.015.015.016c.127.135.302.2.48.2h.006a.65.65 0 0 0 .477-.2L6.1 4.095a.691.691 0 0 0 .015-.984l-.034-.035a.69.69 0 0 0-.499-.194zM8.458 4.13a.706.706 0 0 0-.712.702v.711a.71.71 0 0 0 .712.709h13.45a.706.706 0 0 0 .702-.709v-.711a.706.706 0 0 0-.702-.702zm-4.96 4.95a.71.71 0 0 0-.711.708v.712a.702.702 0 0 0 .711.702h.709a.696.696 0 0 0 .702-.702v-.712a.703.703 0 0 0-.702-.708h-.705zm4.96 0a.71.71 0 0 0-.712.708v.712a.71.71 0 0 0 .712.712h13.45a.706.706 0 0 0 .702-.712v-.712a.706.706 0 0 0-.702-.708zm-4.96 5.132a.71.71 0 0 0-.711.712v.711a.706.706 0 0 0 .711.702h.709a.701.701 0 0 0 .702-.702v-.711a.704.704 0 0 0-.702-.712h-.705zm4.96 0a.712.712 0 0 0-.712.712v.711a.706.706 0 0 0 .712.702h13.45a.706.706 0 0 0 .702-.702v-.711a.706.706 0 0 0-.702-.712zm-4.96 4.78a.71.71 0 0 0-.711.713v.702a.71.71 0 0 0 .711.711h.709a.702.702 0 0 0 .702-.711v-.702a.704.704 0 0 0-.702-.712h-.705zm4.96 0a.712.712 0 0 0-.712.713v.702a.71.71 0 0 0 .712.711h13.45a.706.706 0 0 0 .702-.711v-.702a.706.706 0 0 0-.702-.712z" fill="#e6e6e6"/></svg>

<?xml version="1.0" encoding="UTF-8" standalone="no"?>
<svg
   xmlns:dc="http://purl.org/dc/elements/1.1/"
   xmlns:cc="http://creativecommons.org/ns#"
   xmlns:rdf="http://www.w3.org/1999/02/22-rdf-syntax-ns#"
   xmlns:svg="http://www.w3.org/2000/svg"
   xmlns="http://www.w3.org/2000/svg"
   xmlns:sodipodi="http://sodipodi.sourceforge.net/DTD/sodipodi-0.dtd"
   xmlns:inkscape="http://www.inkscape.org/namespaces/inkscape"
   width="24"
   height="24"
   version="1.1"
   id="svg4"
   sodipodi:docname="korganizer.svg"
   inkscape:version="0.92.4 (5da689c313, 2019-01-14)">
  <metadata
     id="metadata10">
    <rdf:RDF>
      <cc:Work
         rdf:about="">
        <dc:format>image/svg+xml</dc:format>
        <dc:type
           rdf:resource="http://purl.org/dc/dcmitype/StillImage" />
        <dc:title></dc:title>
      </cc:Work>
    </rdf:RDF>
  </metadata>
  <defs
     id="defs8" />
  <sodipodi:namedview
     pagecolor="#ffffff"
     bordercolor="#666666"
     borderopacity="1"
     objecttolerance="10"
     gridtolerance="10"
     guidetolerance="10"
     inkscape:pageopacity="0"
     inkscape:pageshadow="2"
     inkscape:window-width="1138"
     inkscape:window-height="480"
     id="namedview6"
     showgrid="false"
     inkscape:zoom="9.8333333"
     inkscape:cx="1.0677966"
     inkscape:cy="12"
     inkscape:window-x="0"
     inkscape:window-y="25"
     inkscape:window-maximized="0"
     inkscape:current-layer="svg4" />
  <path
     d="M 5.583,2.882 A 0.69,0.69 0 0 0 5.107,3.092 L 3.602,4.59 2.605,3.597 A 0.7,0.7 0 0 0 1.617,3.577 L 1.586,3.609 a 0.69,0.69 0 0 0 0.016,0.978 l 1.48,1.493 0.025,0.015 0.015,0.016 c 0.127,0.135 0.302,0.2 0.48,0.2 h 0.006 a 0.65,0.65 0 0 0 0.477,-0.2 L 6.1,4.095 A 0.691,0.691 0 0 0 6.115,3.111 L 6.081,3.076 A 0.69,0.69 0 0 0 5.582,2.882 Z M 8.458,4.13 A 0.706,0.706 0 0 0 7.746,4.832 v 0.711 a 0.71,0.71 0 0 0 0.712,0.709 h 13.45 A 0.706,0.706 0 0 0 22.61,5.543 V 4.832 A 0.706,0.706 0 0 0 21.908,4.13 Z M 3.498,9.08 A 0.71,0.71 0 0 0 2.787,9.788 V 10.5 a 0.702,0.702 0 0 0 0.711,0.702 H 4.207 A 0.696,0.696 0 0 0 4.909,10.5 V 9.788 A 0.703,0.703 0 0 0 4.207,9.08 H 3.502 Z m 4.96,0 A 0.71,0.71 0 0 0 7.746,9.788 V 10.5 a 0.71,0.71 0 0 0 0.712,0.712 h 13.45 A 0.706,0.706 0 0 0 22.61,10.5 V 9.788 A 0.706,0.706 0 0 0 21.908,9.08 Z m -4.96,5.132 a 0.71,0.71 0 0 0 -0.711,0.712 v 0.711 a 0.706,0.706 0 0 0 0.711,0.702 H 4.207 A 0.701,0.701 0 0 0 4.909,15.635 V 14.924 A 0.704,0.704 0 0 0 4.207,14.212 H 3.502 Z m 4.96,0 a 0.712,0.712 0 0 0 -0.712,0.712 v 0.711 a 0.706,0.706 0 0 0 0.712,0.702 h 13.45 a 0.706,0.706 0 0 0 0.702,-0.702 v -0.711 a 0.706,0.706 0 0 0 -0.702,-0.712 z m -4.96,4.78 a 0.71,0.71 0 0 0 -0.711,0.713 v 0.702 a 0.71,0.71 0 0 0 0.711,0.711 H 4.207 A 0.702,0.702 0 0 0 4.909,20.407 V 19.705 A 0.704,0.704 0 0 0 4.207,18.993 H 3.502 Z m 4.96,0 a 0.712,0.712 0 0 0 -0.712,0.713 v 0.702 a 0.71,0.71 0 0 0 0.712,0.711 h 13.45 a 0.706,0.706 0 0 0 0.702,-0.711 v -0.702 a 0.706,0.706 0 0 0 -0.702,-0.712 z"
     id="path2"
     inkscape:connector-curvature="0"
     style="fill:#e6e6e6" />
</svg>
